;FLAVOR:Marlin
;TIME:13230
;Filament used: 10.2467m
;Layer height: 0.2
;MINX:96
;MINY:76.5
;MINZ:0.2
;MAXX:134
;MAXY:153.5
;MAXZ:110
;TARGET_MACHINE.NAME:Creality Ender-3 v2 Neo
;Generated with Cura_SteamEngine 5.9.0
M140 S60
M105
M190 S60
M104 S200
M105
M109 S200
M82 ;absolute extrusion mode
G92 E0 ;Reset Extruder
G28 ;Home
G1 Z2.0 F3000 ;Move Z Axis up
G1 X10.1 Y20 Z0.28 F5000.0 ;Move to start position
G1 X10.1 Y200.0 Z0.28 F1500.0 E15 ;Draw the first line
G1 X10.4 Y200.0 Z0.28 F5000.0 ;Move to side a little
G1 X10.4 Y20 Z0.28 F1500.0 E30 ;Draw the second line
G92 E0 ;Reset Extruder
G1 Z2.0 F3000 ;Move Z Axis up
G92 E0
G92 E0
G1 F1500 E-4
;LAYER_COUNT:550
;LAYER:0
M107
G0 F6000 X124.496 Y153.387 Z0.2
;TYPE:SKIRT
G1 F1500 E0
G1 F1200 X123.345 Y153.485 E0.03842
G1 X122.67 Y153.5 E0.06088
G1 X107.564 Y153.499 E0.5633
G1 X106.831 Y153.488 E0.58769
G1 X105.859 Y153.431 E0.62007
G1 X104.896 Y153.285 E0.65247
G1 X103.95 Y153.056 E0.68484
G1 X103.026 Y152.744 E0.71728
G1 X102.136 Y152.352 E0.74962
G1 X101.313 Y151.901 E0.78084
G1 X100.474 Y151.34 E0.8144
G1 X99.77 Y150.774 E0.84445
G1 X99.017 Y150.049 E0.87922
G1 X98.38 Y149.313 E0.91159
G1 X97.85 Y148.582 E0.94162
G1 X97.314 Y147.685 E0.97638
G1 X96.892 Y146.807 E1.00878
G1 X96.55 Y145.895 E1.04117
G1 X96.29 Y144.957 E1.07355
G1 X96.112 Y143.988 E1.10632
G1 X96.014 Y142.809 E1.14566
G1 X96 Y142.158 E1.16732
G1 X96.001 Y88.025 E2.96779
G1 X96.012 Y87.325 E2.99108
G1 X96.07 Y86.352 E3.0235
G1 X96.216 Y85.389 E3.05589
G1 X96.446 Y84.443 E3.08827
G1 X96.759 Y83.52 E3.12069
G1 X97.151 Y82.63 E3.15304
G1 X97.621 Y81.777 E3.18543
G1 X98.164 Y80.969 E3.21781
G1 X98.731 Y80.265 E3.24787
G1 X99.456 Y79.513 E3.28261
G1 X100.192 Y78.876 E3.31499
G1 X100.924 Y78.346 E3.34505
G1 X101.821 Y77.811 E3.37979
G1 X102.699 Y77.39 E3.41217
G1 X103.612 Y77.048 E3.4446
G1 X104.549 Y76.789 E3.47693
G1 X105.516 Y76.611 E3.50963
G1 X106.655 Y76.515 E3.54765
G1 X107.312 Y76.5 E3.56951
G1 X122.304 Y76.5 E4.06815
G1 X123.184 Y76.513 E4.09742
G1 X124.156 Y76.572 E4.12981
G1 X125.119 Y76.718 E4.1622
G1 X126.066 Y76.949 E4.19462
G1 X126.954 Y77.249 E4.2258
G1 X127.846 Y77.639 E4.25818
G1 X128.729 Y78.126 E4.29172
G1 X129.48 Y78.628 E4.32176
G1 X130.295 Y79.286 E4.3566
G1 X130.993 Y79.964 E4.38897
G1 X131.629 Y80.701 E4.42134
G1 X132.199 Y81.491 E4.45374
G1 X132.661 Y82.267 E4.48378
G1 X133.115 Y83.209 E4.51856
G1 X133.444 Y84.087 E4.54975
G1 X133.713 Y85.059 E4.58329
G1 X133.89 Y86.025 E4.61596
G1 X133.985 Y87.155 E4.65367
G1 X134 Y87.83 E4.67613
G1 X133.999 Y141.9 E6.4745
G1 X133.988 Y142.663 E6.49988
G1 X133.931 Y143.636 E6.5323
G1 X133.786 Y144.599 E6.56469
G1 X133.557 Y145.545 E6.59706
G1 X133.246 Y146.469 E6.62949
G1 X132.854 Y147.36 E6.66187
G1 X132.386 Y148.212 E6.6942
G1 X131.864 Y148.993 E6.72544
G1 X131.231 Y149.778 E6.75898
G1 X130.606 Y150.429 E6.789
G1 X129.817 Y151.117 E6.82382
G1 X129.057 Y151.667 E6.85502
G1 X128.19 Y152.184 E6.88859
G1 X127.312 Y152.606 E6.92099
G1 X126.401 Y152.948 E6.95336
G1 X125.462 Y153.209 E6.98577
G1 X124.496 Y153.387 E7.01844
G0 F6000 X124.462 Y152.988
G1 F1200 X123.311 Y153.086 E7.05686
G1 X122.67 Y153.1 E7.07819
G1 X107.57 Y153.099 E7.58042
G1 X106.854 Y153.089 E7.60423
G1 X105.918 Y153.035 E7.63542
G1 X104.989 Y152.896 E7.66666
G1 X104.077 Y152.677 E7.69786
G1 X103.187 Y152.378 E7.72908
G1 X102.328 Y152.001 E7.76028
G1 X101.505 Y151.55 E7.7915
G1 X100.725 Y151.028 E7.82271
G1 X100.021 Y150.462 E7.85276
G1 X99.319 Y149.787 E7.88515
G1 X98.704 Y149.078 E7.91637
G1 X98.174 Y148.347 E7.9464
G1 X97.674 Y147.511 E7.9788
G1 X97.266 Y146.666 E8.01001
G1 X96.935 Y145.788 E8.04121
G1 X96.683 Y144.884 E8.07243
G1 X96.511 Y143.955 E8.10385
G1 X96.413 Y142.776 E8.1432
G1 X96.4 Y142.158 E8.16376
G1 X96.401 Y88.031 E9.96403
G1 X96.411 Y87.348 E9.98675
G1 X96.466 Y86.411 E10.01797
G1 X96.605 Y85.483 E10.04918
G1 X96.825 Y84.571 E10.08038
G1 X97.125 Y83.681 E10.11162
G1 X97.502 Y82.822 E10.14282
G1 X97.953 Y82 E10.17401
G1 X98.476 Y81.22 E10.20524
G1 X99.043 Y80.516 E10.23531
G1 X99.718 Y79.815 E10.26767
G1 X100.427 Y79.2 E10.29889
G1 X101.159 Y78.67 E10.32895
G1 X101.995 Y78.171 E10.36133
G1 X102.84 Y77.764 E10.39252
G1 X103.719 Y77.433 E10.42376
G1 X104.622 Y77.182 E10.45494
G1 X105.55 Y77.01 E10.48633
G1 X106.689 Y76.914 E10.52435
G1 X107.321 Y76.9 E10.54537
G1 X122.298 Y76.9 E11.04351
G1 X123.16 Y76.912 E11.07218
G1 X124.097 Y76.968 E11.1034
G1 X125.025 Y77.107 E11.13461
G1 X125.938 Y77.328 E11.16586
G1 X126.794 Y77.616 E11.19589
G1 X127.686 Y78.006 E11.22827
G1 X128.507 Y78.459 E11.25946
G1 X129.258 Y78.961 E11.28951
G1 X130.017 Y79.573 E11.32193
G1 X130.691 Y80.226 E11.35315
G1 X131.305 Y80.935 E11.38434
G1 X131.855 Y81.696 E11.41557
G1 X132.317 Y82.472 E11.44561
G1 X132.74 Y83.349 E11.47799
G1 X133.069 Y84.227 E11.50918
G1 X133.32 Y85.132 E11.54042
G1 X133.491 Y86.059 E11.57177
G1 X133.586 Y87.189 E11.60949
G1 X133.6 Y87.83 E11.63081
G1 X133.599 Y141.895 E13.42902
G1 X133.589 Y142.64 E13.4538
G1 X133.535 Y143.577 E13.48502
G1 X133.397 Y144.506 E13.51625
G1 X133.178 Y145.418 E13.54745
G1 X132.88 Y146.308 E13.57867
G1 X132.503 Y147.168 E13.6099
G1 X132.053 Y147.99 E13.64107
G1 X131.531 Y148.771 E13.67231
G1 X130.942 Y149.501 E13.70351
G1 X130.317 Y150.152 E13.73352
G1 X129.582 Y150.793 E13.76596
G1 X128.822 Y151.343 E13.79716
G1 X128.016 Y151.824 E13.82838
G1 X127.171 Y152.232 E13.85959
G1 X126.293 Y152.563 E13.8908
G1 X125.389 Y152.816 E13.92202
G1 X124.462 Y152.988 E13.95338
G0 F6000 X124.428 Y152.589
G1 F1200 X123.277 Y152.687 E13.9918
G1 X122.67 Y152.7 E14.012
G1 X107.575 Y152.699 E14.51406
G1 X106.877 Y152.69 E14.53728
G1 X105.976 Y152.639 E14.56729
G1 X105.082 Y152.507 E14.59735
G1 X104.204 Y152.298 E14.62737
G1 X103.347 Y152.011 E14.65743
G1 X102.52 Y151.65 E14.68744
G1 X101.727 Y151.217 E14.71749
G1 X100.976 Y150.716 E14.74752
G1 X100.272 Y150.15 E14.77756
G1 X99.621 Y149.524 E14.8076
G1 X99.028 Y148.843 E14.83763
G1 X98.498 Y148.112 E14.86766
G1 X98.034 Y147.337 E14.89771
G1 X97.64 Y146.524 E14.92776
G1 X97.32 Y145.68 E14.95778
G1 X97.076 Y144.81 E14.98783
G1 X96.91 Y143.922 E15.01788
G1 X96.813 Y142.767 E15.05643
G1 X96.8 Y142.158 E15.07669
G1 X96.801 Y88.036 E16.87679
G1 X96.81 Y87.371 E16.89891
G1 X96.862 Y86.469 E16.92896
G1 X96.994 Y85.576 E16.95899
G1 X97.204 Y84.698 E16.98901
G1 X97.491 Y83.841 E17.01907
G1 X97.853 Y83.014 E17.0491
G1 X98.286 Y82.222 E17.07912
G1 X98.788 Y81.471 E17.10917
G1 X99.355 Y80.767 E17.13923
G1 X99.981 Y80.117 E17.16925
G1 X100.662 Y79.524 E17.19928
G1 X101.394 Y78.994 E17.22934
G1 X102.169 Y78.531 E17.25936
G1 X102.982 Y78.138 E17.2894
G1 X103.827 Y77.818 E17.31945
G1 X104.696 Y77.575 E17.34946
G1 X105.584 Y77.409 E17.37951
G1 X106.723 Y77.313 E17.41753
G1 X107.33 Y77.3 E17.43772
G1 X122.293 Y77.3 E17.93539
G1 X123.137 Y77.311 E17.96347
G1 X124.039 Y77.364 E17.99352
G1 X124.932 Y77.496 E18.02354
G1 X125.81 Y77.707 E18.05358
G1 X126.666 Y77.995 E18.08361
G1 X127.493 Y78.357 E18.11364
G1 X128.285 Y78.792 E18.14369
G1 X129.036 Y79.294 E18.17374
G1 X129.739 Y79.861 E18.20378
G1 X130.389 Y80.488 E18.23382
G1 X130.981 Y81.17 E18.26385
G1 X131.511 Y81.901 E18.29388
G1 X131.973 Y82.677 E18.32392
G1 X132.366 Y83.49 E18.35396
G1 X132.684 Y84.335 E18.38399
G1 X132.927 Y85.205 E18.41403
G1 X133.092 Y86.093 E18.44407
G1 X133.187 Y87.223 E18.48179
G1 X133.2 Y87.83 E18.50198
G1 X133.199 Y141.89 E20.30002
G1 X133.19 Y142.617 E20.3242
G1 X133.139 Y143.519 E20.35425
G1 X133.008 Y144.413 E20.38431
G1 X132.799 Y145.291 E20.41432
G1 X132.513 Y146.148 E20.44437
G1 X132.152 Y146.976 E20.47442
G1 X131.72 Y147.768 E20.50442
G1 X131.219 Y148.52 E20.53448
G1 X130.653 Y149.224 E20.56452
G1 X130.028 Y149.875 E20.59454
G1 X129.347 Y150.469 E20.62459
G1 X128.616 Y151 E20.65464
G1 X127.842 Y151.464 E20.68466
G1 X127.029 Y151.858 E20.71471
G1 X126.185 Y152.178 E20.74473
G1 X125.315 Y152.423 E20.77479
G1 X124.428 Y152.589 E20.8048
G1 F1500 E16.8048
;MESH:removablepillholder.stl
G0 F6000 X122.576 Y143.165
G0 X115 Y141.9
;TYPE:WALL-INNER
G1 F1500 E20.8048
G1 F1200 X122.4 Y141.9 E21.05093
G1 X122.4 Y88.1 E22.84032
G1 X107.6 Y88.1 E23.33257
G1 X107.6 Y141.9 E25.12197
G1 X115 Y141.9 E25.36809
G0 F6000 X115 Y142.3
;TYPE:WALL-OUTER
G1 F1200 X122.8 Y142.3 E25.62752
G1 X122.8 Y87.7 E27.44353
G1 X107.2 Y87.7 E27.96238
G1 X107.2 Y142.3 E29.77839
G1 X115 Y142.3 E30.03782
G0 F6000 X115 Y141.54
;TYPE:SKIN
G1 F1200 X107.96 Y141.54 E30.27197
G1 X107.96 Y88.46 E32.03742
G1 X122.04 Y88.46 E32.50572
G1 X122.04 Y141.54 E34.27117
G1 X115 Y141.54 E34.50532
G0 F6000 X115 Y141.8
G0 X107.772 Y141.728
G0 X107.7 Y140.97
G0 X108.16 Y140.97
G1 F1200 X108.53 Y141.34 E34.52272
G0 F6000 X109.096 Y141.34
G1 F1200 X108.16 Y140.404 E34.56675
G0 F6000 X108.16 Y139.838
G1 F1200 X109.662 Y141.34 E34.6374
G0 F6000 X110.227 Y141.34
G1 F1200 X108.16 Y139.272 E34.73465
G0 F6000 X108.16 Y138.707
G1 F1200 X110.793 Y141.34 E34.85849
G0 F6000 X111.359 Y141.34
G1 F1200 X108.16 Y138.141 E35.00897
G0 F6000 X108.16 Y137.575
G1 F1200 X111.924 Y141.34 E35.18604
G0 F6000 X112.49 Y141.34
G1 F1200 X108.16 Y137.01 E35.38971
G0 F6000 X108.16 Y136.444
G1 F1200 X113.056 Y141.34 E35.62
G0 F6000 X113.621 Y141.34
G1 F1200 X108.16 Y135.878 E35.87689
G0 F6000 X108.16 Y135.313
G1 F1200 X114.187 Y141.34 E36.16038
G0 F6000 X114.753 Y141.34
G1 F1200 X108.16 Y134.747 E36.4705
G0 F6000 X108.16 Y134.181
G1 F1200 X115.319 Y141.34 E36.80724
G0 F6000 X115.884 Y141.34
G1 F1200 X108.16 Y133.616 E37.17055
G0 F6000 X108.16 Y133.05
G1 F1200 X116.45 Y141.34 E37.56048
G0 F6000 X117.016 Y141.34
G1 F1200 X108.16 Y132.484 E37.97704
G0 F6000 X108.16 Y131.919
G1 F1200 X117.581 Y141.34 E38.42018
G0 F6000 X118.147 Y141.34
G1 F1200 X108.16 Y131.353 E38.88994
G0 F6000 X108.16 Y130.787
G1 F1200 X118.713 Y141.34 E39.38632
G0 F6000 X119.278 Y141.34
G1 F1200 X108.16 Y130.221 E39.9093
G0 F6000 X108.16 Y129.656
G1 F1200 X119.844 Y141.34 E40.45888
G0 F6000 X120.41 Y141.34
G1 F1200 X108.16 Y129.09 E41.03508
G0 F6000 X108.16 Y128.524
G1 F1200 X120.975 Y141.34 E41.63788
G0 F6000 X121.541 Y141.34
G1 F1200 X108.16 Y127.959 E42.26728
G0 F6000 X108.16 Y127.393
G1 F1200 X121.84 Y141.073 E42.91075
G0 F6000 X121.84 Y140.508
G1 F1200 X108.16 Y126.827 E43.55424
G0 F6000 X108.16 Y126.262
G1 F1200 X121.84 Y139.942 E44.1977
G0 F6000 X121.84 Y139.376
G1 F1200 X108.16 Y125.696 E44.84117
G0 F6000 X108.16 Y125.13
G1 F1200 X121.84 Y138.811 E45.48466
G0 F6000 X121.84 Y138.245
G1 F1200 X108.16 Y124.565 E46.12812
G0 F6000 X108.16 Y123.999
G1 F1200 X121.84 Y137.679 E46.77159
G0 F6000 X121.84 Y137.114
G1 F1200 X108.16 Y123.433 E47.41508
G0 F6000 X108.16 Y122.868
G1 F1200 X121.84 Y136.548 E48.05854
G0 F6000 X121.84 Y135.982
G1 F1200 X108.16 Y122.302 E48.70201
G0 F6000 X108.16 Y121.736
G1 F1200 X121.84 Y135.417 E49.34549
G0 F6000 X121.84 Y134.851
G1 F1200 X108.16 Y121.171 E49.98896
G0 F6000 X108.16 Y120.605
G1 F1200 X121.84 Y134.285 E50.63242
G0 F6000 X121.84 Y133.72
G1 F1200 X108.16 Y120.039 E51.27591
G0 F6000 X108.16 Y119.473
G1 F1200 X121.84 Y133.154 E51.9194
G0 F6000 X121.84 Y132.588
G1 F1200 X108.16 Y118.908 E52.56287
G0 F6000 X108.16 Y118.342
G1 F1200 X121.84 Y132.022 E53.20633
G0 F6000 X121.84 Y131.457
G1 F1200 X108.16 Y117.776 E53.84982
G0 F6000 X108.16 Y117.211
G1 F1200 X121.84 Y130.891 E54.49329
G0 F6000 X121.84 Y130.325
G1 F1200 X108.16 Y116.645 E55.13675
G0 F6000 X108.16 Y116.079
G1 F1200 X121.84 Y129.76 E55.78024
G0 F6000 X121.84 Y129.194
G1 F1200 X108.16 Y115.514 E56.42371
G0 F6000 X108.16 Y114.948
G1 F1200 X121.84 Y128.628 E57.06717
G0 F6000 X121.84 Y128.063
G1 F1200 X108.16 Y114.382 E57.71066
G0 F6000 X108.16 Y113.817
G1 F1200 X121.84 Y127.497 E58.35413
G0 F6000 X121.84 Y126.931
G1 F1200 X108.16 Y113.251 E58.99759
G0 F6000 X108.16 Y112.685
G1 F1200 X121.84 Y126.366 E59.64108
G0 F6000 X121.84 Y125.8
G1 F1200 X108.16 Y112.12 E60.28454
G0 F6000 X108.16 Y111.554
G1 F1200 X121.84 Y125.234 E60.92801
G0 F6000 X121.84 Y124.669
G1 F1200 X108.16 Y110.988 E61.5715
G0 F6000 X108.16 Y110.423
G1 F1200 X121.84 Y124.103 E62.21496
G0 F6000 X121.84 Y123.537
G1 F1200 X108.16 Y109.857 E62.85843
G0 F6000 X108.16 Y109.291
G1 F1200 X121.84 Y122.972 E63.50192
G0 F6000 X121.84 Y122.406
G1 F1200 X108.16 Y108.725 E64.14541
G0 F6000 X108.16 Y108.16
G1 F1200 X121.84 Y121.84 E64.78887
G0 F6000 X121.84 Y121.274
G1 F1200 X108.16 Y107.594 E65.43234
G0 F6000 X108.16 Y107.028
G1 F1200 X121.84 Y120.709 E66.07583
G0 F6000 X121.84 Y120.143
G1 F1200 X108.16 Y106.463 E66.71929
G0 F6000 X108.16 Y105.897
G1 F1200 X121.84 Y119.577 E67.36276
G0 F6000 X121.84 Y119.012
G1 F1200 X108.16 Y105.331 E68.00625
G0 F6000 X108.16 Y104.766
G1 F1200 X121.84 Y118.446 E68.64971
G0 F6000 X121.84 Y117.88
G1 F1200 X108.16 Y104.2 E69.29318
G0 F6000 X108.16 Y103.634
G1 F1200 X121.84 Y117.315 E69.93666
G0 F6000 X121.84 Y116.749
G1 F1200 X108.16 Y103.069 E70.58013
G0 F6000 X108.16 Y102.503
G1 F1200 X121.84 Y116.183 E71.2236
G0 F6000 X121.84 Y115.618
G1 F1200 X108.16 Y101.937 E71.86708
G0 F6000 X108.16 Y101.372
G1 F1200 X121.84 Y115.052 E72.51055
G0 F6000 X121.84 Y114.486
G1 F1200 X108.16 Y100.806 E73.15401
G0 F6000 X108.16 Y100.24
G1 F1200 X121.84 Y113.921 E73.7975
G0 F6000 X121.84 Y113.355
G1 F1200 X108.16 Y99.674 E74.44099
G0 F6000 X108.16 Y99.109
G1 F1200 X121.84 Y112.789 E75.08446
G0 F6000 X121.84 Y112.224
G1 F1200 X108.16 Y98.543 E75.72795
G0 F6000 X108.16 Y97.977
G1 F1200 X121.84 Y111.658 E76.37143
G0 F6000 X121.84 Y111.092
G1 F1200 X108.16 Y97.412 E77.0149
G0 F6000 X108.16 Y96.846
G1 F1200 X121.84 Y110.526 E77.65837
G0 F6000 X121.84 Y109.961
G1 F1200 X108.16 Y96.28 E78.30185
G0 F6000 X108.16 Y95.715
G1 F1200 X121.84 Y109.395 E78.94532
G0 F6000 X121.84 Y108.829
G1 F1200 X108.16 Y95.149 E79.58878
G0 F6000 X108.16 Y94.583
G1 F1200 X121.84 Y108.264 E80.23227
G0 F6000 X121.84 Y107.698
G1 F1200 X108.16 Y94.018 E80.87574
G0 F6000 X108.16 Y93.452
G1 F1200 X121.84 Y107.132 E81.5192
G0 F6000 X121.84 Y106.567
G1 F1200 X108.16 Y92.886 E82.16269
G0 F6000 X108.16 Y92.321
G1 F1200 X121.84 Y106.001 E82.80616
G0 F6000 X121.84 Y105.435
G1 F1200 X108.16 Y91.755 E83.44962
G0 F6000 X108.16 Y91.189
G1 F1200 X121.84 Y104.87 E84.09311
G0 F6000 X121.84 Y104.304
G1 F1200 X108.16 Y90.624 E84.73658
G0 F6000 X108.16 Y90.058
G1 F1200 X121.84 Y103.738 E85.38004
G0 F6000 X121.84 Y103.173
G1 F1200 X108.16 Y89.492 E86.02353
G0 F6000 X108.16 Y88.926
G1 F1200 X121.84 Y102.607 E86.66702
G0 F6000 X121.84 Y102.041
G1 F1200 X108.459 Y88.66 E87.29642
G0 F6000 X109.025 Y88.66
G1 F1200 X121.84 Y101.475 E87.8992
G0 F6000 X121.84 Y100.91
G1 F1200 X109.59 Y88.66 E88.4754
G0 F6000 X110.156 Y88.66
G1 F1200 X121.84 Y100.344 E89.02498
G0 F6000 X121.84 Y99.778
G1 F1200 X110.722 Y88.66 E89.54794
G0 F6000 X111.287 Y88.66
G1 F1200 X121.84 Y99.213 E90.04432
G0 F6000 X121.84 Y98.647
G1 F1200 X111.853 Y88.66 E90.51408
G0 F6000 X112.419 Y88.66
G1 F1200 X121.84 Y98.081 E90.95721
G0 F6000 X121.84 Y97.516
G1 F1200 X112.984 Y88.66 E91.37377
G0 F6000 X113.55 Y88.66
G1 F1200 X121.84 Y96.95 E91.76371
G0 F6000 X121.84 Y96.384
G1 F1200 X114.116 Y88.66 E92.12702
G0 F6000 X114.681 Y88.66
G1 F1200 X121.84 Y95.819 E92.46376
G0 F6000 X121.84 Y95.253
G1 F1200 X115.247 Y88.66 E92.77387
G0 F6000 X115.813 Y88.66
G1 F1200 X121.84 Y94.687 E93.05736
G0 F6000 X121.84 Y94.122
G1 F1200 X116.378 Y88.66 E93.31428
G0 F6000 X116.944 Y88.66
G1 F1200 X121.84 Y93.556 E93.54457
G0 F6000 X121.84 Y92.99
G1 F1200 X117.51 Y88.66 E93.74824
G0 F6000 X118.076 Y88.66
G1 F1200 X121.84 Y92.425 E93.92531
G0 F6000 X121.84 Y91.859
G1 F1200 X118.641 Y88.66 E94.07578
G0 F6000 X119.207 Y88.66
G1 F1200 X121.84 Y91.293 E94.19963
G0 F6000 X121.84 Y90.727
