;FLAVOR:Marlin
;TIME:10903
;Filament used: 7.89756m
;Layer height: 0.2
;MINX:96.023
;MINY:76.5
;MINZ:0.2
;MAXX:134
;MAXY:153.5
;MAXZ:95
;TARGET_MACHINE.NAME:Creality Ender-3 v2 Neo
;Generated with Cura_SteamEngine 5.9.0
M140 S60
M105
M190 S60
M104 S200
M105
M109 S200
M82 ;absolute extrusion mode
G92 E0 ;Reset Extruder
G28 ;Home
G1 Z2.0 F3000 ;Move Z Axis up
G1 X10.1 Y20 Z0.28 F5000.0 ;Move to start position
G1 X10.1 Y200.0 Z0.28 F1500.0 E15 ;Draw the first line
G1 X10.4 Y200.0 Z0.28 F5000.0 ;Move to side a little
G1 X10.4 Y20 Z0.28 F1500.0 E30 ;Draw the second line
G92 E0 ;Reset Extruder
G1 Z2.0 F3000 ;Move Z Axis up
G92 E0
G92 E0
G1 F1500 E-4
;LAYER_COUNT:475
;LAYER:0
M107
G0 F6000 X124.496 Y153.387 Z0.2
;TYPE:SKIRT
G1 F1500 E0
G1 F1200 X123.345 Y153.485 E0.03842
G1 X122.67 Y153.5 E0.06088
G1 X107.587 Y153.499 E0.56254
G1 X106.854 Y153.488 E0.58692
G1 X105.882 Y153.431 E0.61931
G1 X104.919 Y153.285 E0.6517
G1 X103.973 Y153.056 E0.68407
G1 X103.049 Y152.744 E0.71651
G1 X102.159 Y152.352 E0.74886
G1 X101.336 Y151.901 E0.78007
G1 X100.497 Y151.34 E0.81364
G1 X99.793 Y150.774 E0.84368
G1 X99.04 Y150.049 E0.87845
G1 X98.403 Y149.313 E0.91083
G1 X97.873 Y148.582 E0.94086
G1 X97.337 Y147.685 E0.97561
G1 X96.915 Y146.807 E1.00801
G1 X96.573 Y145.895 E1.04041
G1 X96.313 Y144.957 E1.07278
G1 X96.135 Y143.988 E1.10555
G1 X96.037 Y142.809 E1.1449
G1 X96.023 Y142.158 E1.16656
G1 X96.024 Y88.025 E2.96703
G1 X96.035 Y87.325 E2.99031
G1 X96.093 Y86.352 E3.02273
G1 X96.239 Y85.389 E3.05513
G1 X96.469 Y84.443 E3.08751
G1 X96.782 Y83.52 E3.11992
G1 X97.174 Y82.63 E3.15227
G1 X97.644 Y81.777 E3.18466
G1 X98.187 Y80.969 E3.21704
G1 X98.754 Y80.265 E3.24711
G1 X99.479 Y79.513 E3.28185
G1 X100.215 Y78.876 E3.31422
G1 X100.947 Y78.346 E3.34428
G1 X101.844 Y77.811 E3.37902
G1 X102.722 Y77.39 E3.41141
G1 X103.635 Y77.048 E3.44383
G1 X104.572 Y76.789 E3.47617
G1 X105.539 Y76.611 E3.50887
G1 X106.678 Y76.515 E3.54689
G1 X107.335 Y76.5 E3.56874
G1 X122.304 Y76.5 E4.06662
G1 X123.184 Y76.513 E4.09589
G1 X124.156 Y76.572 E4.12828
G1 X125.119 Y76.718 E4.16067
G1 X126.066 Y76.949 E4.19309
G1 X126.954 Y77.249 E4.22427
G1 X127.846 Y77.639 E4.25665
G1 X128.729 Y78.126 E4.29019
G1 X129.48 Y78.628 E4.32023
G1 X130.295 Y79.286 E4.35507
G1 X130.993 Y79.964 E4.38744
G1 X131.629 Y80.701 E4.41981
G1 X132.199 Y81.491 E4.45221
G1 X132.661 Y82.267 E4.48225
G1 X133.115 Y83.209 E4.51703
G1 X133.444 Y84.087 E4.54822
G1 X133.713 Y85.059 E4.58176
G1 X133.89 Y86.025 E4.61443
G1 X133.985 Y87.155 E4.65214
G1 X134 Y87.83 E4.6746
G1 X133.999 Y141.9 E6.47297
G1 X133.988 Y142.663 E6.49835
G1 X133.931 Y143.636 E6.53077
G1 X133.786 Y144.599 E6.56316
G1 X133.557 Y145.545 E6.59553
G1 X133.246 Y146.469 E6.62796
G1 X132.854 Y147.36 E6.66034
G1 X132.386 Y148.212 E6.69267
G1 X131.864 Y148.993 E6.72391
G1 X131.231 Y149.778 E6.75745
G1 X130.606 Y150.429 E6.78747
G1 X129.817 Y151.117 E6.82229
G1 X129.057 Y151.667 E6.85349
G1 X128.19 Y152.184 E6.88706
G1 X127.312 Y152.606 E6.91946
G1 X126.401 Y152.948 E6.95183
G1 X125.462 Y153.209 E6.98424
G1 X124.496 Y153.387 E7.01691
G0 F6000 X124.462 Y152.988
G1 F1200 X123.311 Y153.086 E7.05533
G1 X122.67 Y153.1 E7.07666
G1 X107.593 Y153.099 E7.57812
G1 X106.877 Y153.089 E7.60194
G1 X105.941 Y153.035 E7.63312
G1 X105.012 Y152.896 E7.66437
G1 X104.1 Y152.677 E7.69556
G1 X103.21 Y152.378 E7.72679
G1 X102.351 Y152.001 E7.75799
G1 X101.528 Y151.55 E7.7892
G1 X100.748 Y151.028 E7.82042
G1 X100.044 Y150.462 E7.85046
G1 X99.342 Y149.787 E7.88285
G1 X98.727 Y149.078 E7.91407
G1 X98.197 Y148.347 E7.9441
G1 X97.697 Y147.511 E7.9765
G1 X97.289 Y146.666 E8.00771
G1 X96.958 Y145.788 E8.03892
G1 X96.706 Y144.884 E8.07013
G1 X96.534 Y143.955 E8.10156
G1 X96.436 Y142.776 E8.14091
G1 X96.423 Y142.158 E8.16147
G1 X96.424 Y88.031 E9.96174
G1 X96.434 Y87.348 E9.98446
G1 X96.489 Y86.411 E10.01567
G1 X96.628 Y85.483 E10.04688
G1 X96.848 Y84.571 E10.07809
G1 X97.148 Y83.681 E10.10933
G1 X97.525 Y82.822 E10.14053
G1 X97.976 Y82 E10.17171
G1 X98.499 Y81.22 E10.20295
G1 X99.066 Y80.516 E10.23301
G1 X99.741 Y79.815 E10.26538
G1 X100.45 Y79.2 E10.29659
G1 X101.182 Y78.67 E10.32665
G1 X102.018 Y78.171 E10.35904
G1 X102.863 Y77.764 E10.39023
G1 X103.742 Y77.433 E10.42147
G1 X104.645 Y77.182 E10.45264
G1 X105.573 Y77.01 E10.48403
G1 X106.712 Y76.914 E10.52205
G1 X107.344 Y76.9 E10.54308
G1 X122.298 Y76.9 E11.04045
G1 X123.16 Y76.912 E11.06912
G1 X124.097 Y76.968 E11.10034
G1 X125.025 Y77.107 E11.13155
G1 X125.938 Y77.328 E11.1628
G1 X126.794 Y77.616 E11.19283
G1 X127.686 Y78.006 E11.22521
G1 X128.507 Y78.459 E11.2564
G1 X129.258 Y78.961 E11.28645
G1 X130.017 Y79.573 E11.31887
G1 X130.691 Y80.226 E11.35009
G1 X131.305 Y80.935 E11.38128
G1 X131.855 Y81.696 E11.41251
G1 X132.317 Y82.472 E11.44255
G1 X132.74 Y83.349 E11.47493
G1 X133.069 Y84.227 E11.50612
G1 X133.32 Y85.132 E11.53736
G1 X133.491 Y86.059 E11.56871
G1 X133.586 Y87.189 E11.60643
G1 X133.6 Y87.83 E11.62775
G1 X133.599 Y141.895 E13.42596
G1 X133.589 Y142.64 E13.45074
G1 X133.535 Y143.577 E13.48196
G1 X133.397 Y144.506 E13.5132
G1 X133.178 Y145.418 E13.54439
G1 X132.88 Y146.308 E13.57561
G1 X132.503 Y147.168 E13.60684
G1 X132.053 Y147.99 E13.63801
G1 X131.531 Y148.771 E13.66925
G1 X130.942 Y149.501 E13.70045
G1 X130.317 Y150.152 E13.73046
G1 X129.582 Y150.793 E13.7629
G1 X128.822 Y151.343 E13.7941
G1 X128.016 Y151.824 E13.82532
G1 X127.171 Y152.232 E13.85653
G1 X126.293 Y152.563 E13.88774
G1 X125.389 Y152.816 E13.91896
G1 X124.462 Y152.988 E13.95032
G0 F6000 X124.428 Y152.589
G1 F1200 X123.277 Y152.687 E13.98874
G1 X122.67 Y152.7 E14.00894
G1 X107.598 Y152.699 E14.51023
G1 X106.9 Y152.69 E14.53345
G1 X105.999 Y152.639 E14.56347
G1 X105.105 Y152.507 E14.59352
G1 X104.227 Y152.298 E14.62354
G1 X103.37 Y152.011 E14.6536
G1 X102.543 Y151.65 E14.68361
G1 X101.75 Y151.217 E14.71366
G1 X100.999 Y150.716 E14.74369
G1 X100.295 Y150.15 E14.77374
G1 X99.644 Y149.524 E14.80377
G1 X99.051 Y148.843 E14.83381
G1 X98.521 Y148.112 E14.86384
G1 X98.057 Y147.337 E14.89388
G1 X97.663 Y146.524 E14.92393
G1 X97.343 Y145.68 E14.95395
G1 X97.099 Y144.81 E14.98401
G1 X96.933 Y143.922 E15.01405
G1 X96.836 Y142.767 E15.0526
G1 X96.823 Y142.158 E15.07286
G1 X96.824 Y88.036 E16.87297
G1 X96.833 Y87.371 E16.89509
G1 X96.885 Y86.469 E16.92514
G1 X97.017 Y85.576 E16.95516
G1 X97.227 Y84.698 E16.98519
G1 X97.514 Y83.841 E17.01525
G1 X97.876 Y83.014 E17.04527
G1 X98.309 Y82.222 E17.0753
G1 X98.811 Y81.471 E17.10534
G1 X99.378 Y80.767 E17.13541
G1 X100.004 Y80.117 E17.16542
G1 X100.685 Y79.524 E17.19545
G1 X101.417 Y78.994 E17.22551
G1 X102.192 Y78.531 E17.25554
G1 X103.005 Y78.138 E17.28557
G1 X103.85 Y77.818 E17.31563
G1 X104.719 Y77.575 E17.34564
G1 X105.607 Y77.409 E17.37568
G1 X106.746 Y77.313 E17.4137
G1 X107.353 Y77.3 E17.4339
G1 X122.293 Y77.3 E17.9308
G1 X123.137 Y77.311 E17.95888
G1 X124.039 Y77.364 E17.98893
G1 X124.932 Y77.496 E18.01895
G1 X125.81 Y77.707 E18.04899
G1 X126.666 Y77.995 E18.07902
G1 X127.493 Y78.357 E18.10905
G1 X128.285 Y78.792 E18.1391
G1 X129.036 Y79.294 E18.16915
G1 X129.739 Y79.861 E18.19919
G1 X130.389 Y80.488 E18.22923
G1 X130.981 Y81.17 E18.25926
G1 X131.511 Y81.901 E18.28929
G1 X131.973 Y82.677 E18.31933
G1 X132.366 Y83.49 E18.34937
G1 X132.684 Y84.335 E18.3794
G1 X132.927 Y85.205 E18.40944
G1 X133.092 Y86.093 E18.43948
G1 X133.187 Y87.223 E18.4772
G1 X133.2 Y87.83 E18.49739
G1 X133.199 Y141.89 E20.29543
G1 X133.19 Y142.617 E20.31961
G1 X133.139 Y143.519 E20.34966
G1 X133.008 Y144.413 E20.37972
G1 X132.799 Y145.291 E20.40973
G1 X132.513 Y146.148 E20.43978
G1 X132.152 Y146.976 E20.46983
G1 X131.72 Y147.768 E20.49983
G1 X131.219 Y148.52 E20.52989
G1 X130.653 Y149.224 E20.55993
G1 X130.028 Y149.875 E20.58995
G1 X129.347 Y150.469 E20.62
G1 X128.616 Y151 E20.65005
G1 X127.842 Y151.464 E20.68007
G1 X127.029 Y151.858 E20.71012
G1 X126.185 Y152.178 E20.74014
G1 X125.315 Y152.423 E20.7702
G1 X124.428 Y152.589 E20.80021
G1 F1500 E16.80021
;MESH:removablepillholder v3.stl
G0 F6000 X122.576 Y143.165
G0 X115 Y141.9
;TYPE:WALL-INNER
G1 F1500 E20.80021
G1 F1200 X122.4 Y141.9 E21.04634
G1 X122.4 Y88.1 E22.83573
G1 X107.62 Y88.1 E23.32732
G1 X107.62 Y141.9 E25.11671
G1 X115 Y141.9 E25.36217
G0 F6000 X115 Y142.3
;TYPE:WALL-OUTER
G1 F1200 X122.8 Y142.3 E25.6216
G1 X122.8 Y87.7 E27.43761
G1 X107.22 Y87.7 E27.9558
G1 X107.22 Y142.3 E29.7718
G1 X115 Y142.3 E30.03057
G0 F6000 X115 Y141.54
;TYPE:SKIN
G1 F1200 X107.98 Y141.54 E30.26405
G1 X107.98 Y88.46 E32.0295
G1 X122.04 Y88.46 E32.49714
G1 X122.04 Y141.54 E34.26259
G1 X115 Y141.54 E34.49674
G0 F6000 X115 Y141.8
G0 X108.53 Y141.8
G0 X108.53 Y141.34
G1 F1200 X108.18 Y140.989 E34.51322
G0 F6000 X108.18 Y140.424
G1 F1200 X109.096 Y141.34 E34.55631
G0 F6000 X109.662 Y141.34
G1 F1200 X108.18 Y139.858 E34.62602
G0 F6000 X108.18 Y139.292
G1 F1200 X110.227 Y141.34 E34.72233
G0 F6000 X110.793 Y141.34
G1 F1200 X108.18 Y138.727 E34.84523
G0 F6000 X108.18 Y138.161
G1 F1200 X111.359 Y141.34 E34.99476
G0 F6000 X111.924 Y141.34
G1 F1200 X108.18 Y137.595 E35.17089
G0 F6000 X108.18 Y137.03
G1 F1200 X112.49 Y141.34 E35.37362
G0 F6000 X113.056 Y141.34
G1 F1200 X108.18 Y136.464 E35.60298
G0 F6000 X108.18 Y135.898
G1 F1200 X113.621 Y141.34 E35.85893
G0 F6000 X114.187 Y141.34
G1 F1200 X108.18 Y135.332 E36.1415
G0 F6000 X108.18 Y134.767
G1 F1200 X114.753 Y141.34 E36.45067
G0 F6000 X115.319 Y141.34
G1 F1200 X108.18 Y134.201 E36.78647
G0 F6000 X108.18 Y133.635
G1 F1200 X115.884 Y141.34 E37.14887
G0 F6000 X116.45 Y141.34
G1 F1200 X108.18 Y133.07 E37.53786
G0 F6000 X108.18 Y132.504
G1 F1200 X117.016 Y141.34 E37.95348
G0 F6000 X117.581 Y141.34
G1 F1200 X108.18 Y131.938 E38.3957
G0 F6000 X108.18 Y131.373
G1 F1200 X118.147 Y141.34 E38.86452
G0 F6000 X118.713 Y141.34
G1 F1200 X108.18 Y130.807 E39.35996
G0 F6000 X108.18 Y130.241
G1 F1200 X119.278 Y141.34 E39.882
G0 F6000 X119.844 Y141.34
G1 F1200 X108.18 Y129.676 E40.43063
G0 F6000 X108.18 Y129.11
G1 F1200 X120.41 Y141.34 E41.0059
G0 F6000 X120.975 Y141.34
G1 F1200 X108.18 Y128.544 E41.60776
G0 F6000 X108.18 Y127.979
G1 F1200 X121.541 Y141.34 E42.23622
G0 F6000 X121.84 Y141.073
G1 F1200 X108.18 Y127.413 E42.87874
G0 F6000 X108.18 Y126.847
G1 F1200 X121.84 Y140.508 E43.52129
G0 F6000 X121.84 Y139.942
G1 F1200 X108.18 Y126.281 E44.16384
G0 F6000 X108.18 Y125.716
G1 F1200 X121.84 Y139.376 E44.80636
G0 F6000 X121.84 Y138.811
G1 F1200 X108.18 Y125.15 E45.44891
G0 F6000 X108.18 Y124.584
G1 F1200 X121.84 Y138.245 E46.09146
G0 F6000 X121.84 Y137.679
G1 F1200 X108.18 Y124.019 E46.73398
G0 F6000 X108.18 Y123.453
G1 F1200 X121.84 Y137.114 E47.37653
G0 F6000 X121.84 Y136.548
G1 F1200 X108.18 Y122.887 E48.01908
G0 F6000 X108.18 Y122.322
G1 F1200 X121.84 Y135.982 E48.6616
G0 F6000 X121.84 Y135.417
G1 F1200 X108.18 Y121.756 E49.30415
G0 F6000 X108.18 Y121.19
G1 F1200 X121.84 Y134.851 E49.9467
G0 F6000 X121.84 Y134.285
G1 F1200 X108.18 Y120.625 E50.58922
G0 F6000 X108.18 Y120.059
G1 F1200 X121.84 Y133.72 E51.23177
G0 F6000 X121.84 Y133.154
G1 F1200 X108.18 Y119.493 E51.87432
G0 F6000 X108.18 Y118.928
G1 F1200 X121.84 Y132.588 E52.51685
G0 F6000 X121.84 Y132.022
G1 F1200 X108.18 Y118.362 E53.15937
G0 F6000 X108.18 Y117.796
G1 F1200 X121.84 Y131.457 E53.80192
G0 F6000 X121.84 Y130.891
G1 F1200 X108.18 Y117.231 E54.44444
G0 F6000 X108.18 Y116.665
G1 F1200 X121.84 Y130.325 E55.08697
G0 F6000 X121.84 Y129.76
G1 F1200 X108.18 Y116.099 E55.72951
G0 F6000 X108.18 Y115.533
G1 F1200 X121.84 Y129.194 E56.37206
G0 F6000 X121.84 Y128.628
G1 F1200 X108.18 Y114.968 E57.01459
G0 F6000 X108.18 Y114.402
G1 F1200 X121.84 Y128.063 E57.65714
G0 F6000 X121.84 Y127.497
G1 F1200 X108.18 Y113.836 E58.29968
G0 F6000 X108.18 Y113.271
G1 F1200 X121.84 Y126.931 E58.94221
G0 F6000 X121.84 Y126.366
G1 F1200 X108.18 Y112.705 E59.58476
G0 F6000 X108.18 Y112.139
G1 F1200 X121.84 Y125.8 E60.2273
G0 F6000 X121.84 Y125.234
G1 F1200 X108.18 Y111.574 E60.86983
G0 F6000 X108.18 Y111.008
G1 F1200 X121.84 Y124.669 E61.51238
G0 F6000 X121.84 Y124.103
G1 F1200 X108.18 Y110.442 E62.15492
G0 F6000 X108.18 Y109.877
G1 F1200 X121.84 Y123.537 E62.79745
G0 F6000 X121.84 Y122.972
G1 F1200 X108.18 Y109.311 E63.44
G0 F6000 X108.18 Y108.745
G1 F1200 X121.84 Y122.406 E64.08255
G0 F6000 X121.84 Y121.84
G1 F1200 X108.18 Y108.18 E64.72507
G0 F6000 X108.18 Y107.614
G1 F1200 X121.84 Y121.274 E65.36759
G0 F6000 X121.84 Y120.709
G1 F1200 X108.18 Y107.048 E66.01014
G0 F6000 X108.18 Y106.483
G1 F1200 X121.84 Y120.143 E66.65267
G0 F6000 X121.84 Y119.577
G1 F1200 X108.18 Y105.917 E67.29519
G0 F6000 X108.18 Y105.351
G1 F1200 X121.84 Y119.012 E67.93774
G0 F6000 X121.84 Y118.446
G1 F1200 X108.18 Y104.785 E68.58029
G0 F6000 X108.18 Y104.22
G1 F1200 X121.84 Y117.88 E69.22281
G0 F6000 X121.84 Y117.315
G1 F1200 X108.18 Y103.654 E69.86536
G0 F6000 X108.18 Y103.088
G1 F1200 X121.84 Y116.749 E70.50791
G0 F6000 X121.84 Y116.183
G1 F1200 X108.18 Y102.523 E71.15043
G0 F6000 X108.18 Y101.957
G1 F1200 X121.84 Y115.618 E71.79298
G0 F6000 X121.84 Y115.052
G1 F1200 X108.18 Y101.391 E72.43553
G0 F6000 X108.18 Y100.826
G1 F1200 X121.84 Y114.486 E73.07805
G0 F6000 X121.84 Y113.921
G1 F1200 X108.18 Y100.26 E73.7206
G0 F6000 X108.18 Y99.694
G1 F1200 X121.84 Y113.355 E74.36315
G0 F6000 X121.84 Y112.789
G1 F1200 X108.18 Y99.129 E75.00567
G0 F6000 X108.18 Y98.563
G1 F1200 X121.84 Y112.224 E75.64822
G0 F6000 X121.84 Y111.658
G1 F1200 X108.18 Y97.997 E76.29077
G0 F6000 X108.18 Y97.432
G1 F1200 X121.84 Y111.092 E76.93329
G0 F6000 X121.84 Y110.526
G1 F1200 X108.18 Y96.866 E77.57582
G0 F6000 X108.18 Y96.3
G1 F1200 X121.84 Y109.961 E78.21837
G0 F6000 X121.84 Y109.395
G1 F1200 X108.18 Y95.734 E78.86091
G0 F6000 X108.18 Y95.169
G1 F1200 X121.84 Y108.829 E79.50344
G0 F6000 X121.84 Y108.264
G1 F1200 X108.18 Y94.603 E80.14599
G0 F6000 X108.18 Y94.037
G1 F1200 X121.84 Y107.698 E80.78854
G0 F6000 X121.84 Y107.132
G1 F1200 X108.18 Y93.472 E81.43106
G0 F6000 X108.18 Y92.906
G1 F1200 X121.84 Y106.567 E82.07361
G0 F6000 X121.84 Y106.001
G1 F1200 X108.18 Y92.34 E82.71616
G0 F6000 X108.18 Y91.775
G1 F1200 X121.84 Y105.435 E83.35868
G0 F6000 X121.84 Y104.87
G1 F1200 X108.18 Y91.209 E84.00123
G0 F6000 X108.18 Y90.643
G1 F1200 X121.84 Y104.304 E84.64378
G0 F6000 X121.84 Y103.738
G1 F1200 X108.18 Y90.078 E85.2863
G0 F6000 X108.18 Y89.512
G1 F1200 X121.84 Y103.173 E85.92885
G0 F6000 X121.84 Y102.607
G1 F1200 X108.18 Y88.946 E86.5714
G0 F6000 X108.459 Y88.66
G1 F1200 X121.84 Y102.041 E87.2008
G0 F6000 X121.84 Y101.475
G1 F1200 X109.025 Y88.66 E87.80358
G0 F6000 X109.59 Y88.66
G1 F1200 X121.84 Y100.91 E88.37978
G0 F6000 X121.84 Y100.344
G1 F1200 X110.156 Y88.66 E88.92936
G0 F6000 X110.722 Y88.66
G1 F1200 X121.84 Y99.778 E89.45232
G0 F6000 X121.84 Y99.213
G1 F1200 X111.287 Y88.66 E89.9487
G0 F6000 X111.853 Y88.66
G1 F1200 X121.84 Y98.647 E90.41845
G0 F6000 X121.84 Y98.081
G1 F1200 X112.419 Y88.66 E90.86159
G0 F6000 X112.984 Y88.66
G1 F1200 X121.84 Y97.516 E91.27815
G0 F6000 X121.84 Y96.95
G1 F1200 X113.55 Y88.66 E91.66808
G0 F6000 X114.116 Y88.66
G1 F1200 X121.84 Y96.384 E92.0314
G0 F6000 X121.84 Y95.819
G1 F1200 X114.681 Y88.66 E92.36813
G0 F6000 X115.247 Y88.66
G1 F1200 X121.84 Y95.253 E92.67825
G0 F6000 X121.84 Y94.687
G1 F1200 X115.813 Y88.66 E92.96174
G0 F6000 X116.378 Y88.66
G1 F1200 X121.84 Y94.122 E93.21866
G0 F6000 X121.84 Y93.556
G1 F1200 X116.944 Y88.66 E93.44895
G0 F6000 X117.51 Y88.66
G1 F1200 X121.84 Y92.99 E93.65262
G0 F6000 X121.84 Y92.425
G1 F1200 X118.076 Y88.66 E93.82969
G0 F6000 X118.641 Y88.66
G1 F1200 X121.84 Y91.859 E93.98016
G0 F6000 X121.84 Y91.293
G1 F1200 X119.207 Y88.66 E94.10401
G0 F6000 X119.773 Y88.66
