;FLAVOR:Marlin
;TIME:15010
;Filament used: 10.6214m
;Layer height: 0.2
;MINX:75.5
;MINY:76.5
;MINZ:0.2
;MAXX:154.5
;MAXY:153.5
;MAXZ:60
;TARGET_MACHINE.NAME:Creality Ender-3 v2 Neo
;Generated with Cura_SteamEngine 5.9.0
M140 S60
M105
M190 S60
M104 S200
M105
M109 S200
M82 ;absolute extrusion mode
G92 E0 ;Reset Extruder
G28 ;Home
G1 Z2.0 F3000 ;Move Z Axis up
G1 X10.1 Y20 Z0.28 F5000.0 ;Move to start position
G1 X10.1 Y200.0 Z0.28 F1500.0 E15 ;Draw the first line
G1 X10.4 Y200.0 Z0.28 F5000.0 ;Move to side a little
G1 X10.4 Y20 Z0.28 F1500.0 E30 ;Draw the second line
G92 E0 ;Reset Extruder
G1 Z2.0 F3000 ;Move Z Axis up
G92 E0
G92 E0
G1 F1500 E-4
;LAYER_COUNT:300
;LAYER:0
M107
G0 F6000 X87.064 Y153.499 Z0.2
;TYPE:SKIRT
G1 F1500 E0
G1 F1200 X86.331 Y153.488 E0.02438
G1 X85.359 Y153.431 E0.05677
G1 X84.396 Y153.285 E0.08916
G1 X83.45 Y153.056 E0.12154
G1 X82.526 Y152.744 E0.15397
G1 X81.636 Y152.352 E0.18632
G1 X80.813 Y151.901 E0.21753
G1 X79.974 Y151.34 E0.2511
G1 X79.27 Y150.774 E0.28114
G1 X78.517 Y150.049 E0.31591
G1 X77.88 Y149.313 E0.34829
G1 X77.35 Y148.582 E0.37832
G1 X76.814 Y147.685 E0.41307
G1 X76.392 Y146.807 E0.44547
G1 X76.05 Y145.895 E0.47787
G1 X75.79 Y144.957 E0.51024
G1 X75.612 Y143.988 E0.54301
G1 X75.514 Y142.809 E0.58236
G1 X75.5 Y142.158 E0.60402
G1 X75.501 Y88.025 E2.40449
G1 X75.512 Y87.325 E2.42777
G1 X75.57 Y86.352 E2.46019
G1 X75.716 Y85.389 E2.49259
G1 X75.946 Y84.443 E2.52497
G1 X76.259 Y83.52 E2.55738
G1 X76.651 Y82.63 E2.58973
G1 X77.121 Y81.777 E2.62212
G1 X77.664 Y80.969 E2.6545
G1 X78.231 Y80.265 E2.68457
G1 X78.956 Y79.513 E2.71931
G1 X79.692 Y78.876 E2.75168
G1 X80.424 Y78.346 E2.78174
G1 X81.321 Y77.811 E2.81648
G1 X82.199 Y77.39 E2.84887
G1 X83.112 Y77.048 E2.88129
G1 X84.049 Y76.789 E2.91363
G1 X85.016 Y76.611 E2.94633
G1 X86.155 Y76.515 E2.98435
G1 X86.812 Y76.5 E3.0062
G1 X142.804 Y76.5 E4.86851
G1 X143.684 Y76.513 E4.89778
G1 X144.656 Y76.572 E4.93017
G1 X145.619 Y76.718 E4.96256
G1 X146.566 Y76.949 E4.99498
G1 X147.454 Y77.249 E5.02616
G1 X148.346 Y77.639 E5.05854
G1 X149.229 Y78.126 E5.09208
G1 X149.98 Y78.628 E5.12212
G1 X150.795 Y79.286 E5.15696
G1 X151.493 Y79.964 E5.18933
G1 X152.129 Y80.701 E5.2217
G1 X152.699 Y81.491 E5.2541
G1 X153.161 Y82.267 E5.28414
G1 X153.615 Y83.209 E5.31892
G1 X153.944 Y84.087 E5.35011
G1 X154.213 Y85.059 E5.38365
G1 X154.39 Y86.025 E5.41632
G1 X154.485 Y87.155 E5.45403
G1 X154.5 Y87.83 E5.47649
G1 X154.499 Y141.9 E7.27486
G1 X154.488 Y142.663 E7.30024
G1 X154.431 Y143.636 E7.33266
G1 X154.286 Y144.599 E7.36505
G1 X154.057 Y145.545 E7.39743
G1 X153.746 Y146.469 E7.42985
G1 X153.354 Y147.36 E7.46223
G1 X152.886 Y148.212 E7.49456
G1 X152.364 Y148.993 E7.5258
G1 X151.731 Y149.778 E7.55934
G1 X151.106 Y150.429 E7.58936
G1 X150.317 Y151.117 E7.62418
G1 X149.557 Y151.667 E7.65538
G1 X148.69 Y152.184 E7.68895
G1 X147.812 Y152.606 E7.72135
G1 X146.901 Y152.948 E7.75372
G1 X145.962 Y153.209 E7.78613
G1 X144.996 Y153.387 E7.8188
G1 X143.845 Y153.485 E7.85723
G1 X143.17 Y153.5 E7.87968
G1 X87.064 Y153.499 E9.74577
G0 F6000 X87.07 Y153.099
G1 F1200 X86.354 Y153.089 E9.76959
G1 X85.418 Y153.035 E9.80077
G1 X84.489 Y152.896 E9.83202
G1 X83.577 Y152.677 E9.86321
G1 X82.687 Y152.378 E9.89444
G1 X81.828 Y152.001 E9.92564
G1 X81.005 Y151.55 E9.95685
G1 X80.225 Y151.028 E9.98807
G1 X79.521 Y150.462 E10.01812
G1 X78.819 Y149.787 E10.05051
G1 X78.204 Y149.078 E10.08172
G1 X77.674 Y148.347 E10.11175
G1 X77.174 Y147.511 E10.14415
G1 X76.766 Y146.666 E10.17536
G1 X76.435 Y145.788 E10.20657
G1 X76.183 Y144.884 E10.23779
G1 X76.011 Y143.955 E10.26921
G1 X75.913 Y142.776 E10.30856
G1 X75.9 Y142.158 E10.32912
G1 X75.901 Y88.031 E12.12939
G1 X75.911 Y87.348 E12.15211
G1 X75.966 Y86.411 E12.18333
G1 X76.105 Y85.483 E12.21454
G1 X76.325 Y84.571 E12.24574
G1 X76.625 Y83.681 E12.27698
G1 X77.002 Y82.822 E12.30818
G1 X77.453 Y82 E12.33936
G1 X77.976 Y81.22 E12.3706
G1 X78.543 Y80.516 E12.40066
G1 X79.218 Y79.815 E12.43303
G1 X79.927 Y79.2 E12.46425
G1 X80.659 Y78.67 E12.49431
G1 X81.495 Y78.171 E12.52669
G1 X82.34 Y77.764 E12.55788
G1 X83.219 Y77.433 E12.58912
G1 X84.122 Y77.182 E12.62029
G1 X85.05 Y77.01 E12.65169
G1 X86.189 Y76.914 E12.6897
G1 X86.821 Y76.9 E12.71073
G1 X142.798 Y76.9 E14.57253
G1 X143.66 Y76.912 E14.6012
G1 X144.597 Y76.968 E14.63242
G1 X145.525 Y77.107 E14.66363
G1 X146.438 Y77.328 E14.69488
G1 X147.294 Y77.616 E14.72492
G1 X148.186 Y78.006 E14.7573
G1 X149.007 Y78.459 E14.78848
G1 X149.758 Y78.961 E14.81853
G1 X150.517 Y79.573 E14.85096
G1 X151.191 Y80.226 E14.88217
G1 X151.805 Y80.935 E14.91337
G1 X152.355 Y81.696 E14.9446
G1 X152.817 Y82.472 E14.97463
G1 X153.24 Y83.349 E15.00702
G1 X153.569 Y84.227 E15.0382
G1 X153.82 Y85.132 E15.06944
G1 X153.991 Y86.059 E15.10079
G1 X154.086 Y87.189 E15.13851
G1 X154.1 Y87.83 E15.15983
G1 X154.099 Y141.895 E16.95804
G1 X154.089 Y142.64 E16.98282
G1 X154.035 Y143.577 E17.01404
G1 X153.897 Y144.506 E17.04528
G1 X153.678 Y145.418 E17.07647
G1 X153.38 Y146.308 E17.10769
G1 X153.003 Y147.168 E17.13892
G1 X152.553 Y147.99 E17.17009
G1 X152.031 Y148.771 E17.20133
G1 X151.442 Y149.501 E17.23253
G1 X150.817 Y150.152 E17.26255
G1 X150.082 Y150.793 E17.29498
G1 X149.322 Y151.343 E17.32619
G1 X148.516 Y151.824 E17.35741
G1 X147.671 Y152.232 E17.38861
G1 X146.793 Y152.563 E17.41982
G1 X145.889 Y152.816 E17.45105
G1 X144.962 Y152.988 E17.4824
G1 X143.811 Y153.086 E17.52083
G1 X143.17 Y153.1 E17.54215
G1 X87.07 Y153.099 E19.40804
G0 F6000 X87.075 Y152.699
G1 F1200 X86.377 Y152.69 E19.43126
G1 X85.476 Y152.639 E19.46128
G1 X84.582 Y152.507 E19.49133
G1 X83.704 Y152.298 E19.52135
G1 X82.847 Y152.011 E19.55141
G1 X82.02 Y151.65 E19.58142
G1 X81.227 Y151.217 E19.61148
G1 X80.476 Y150.716 E19.6415
G1 X79.772 Y150.15 E19.67155
G1 X79.121 Y149.524 E19.70158
G1 X78.528 Y148.843 E19.73162
G1 X77.998 Y148.112 E19.76165
G1 X77.534 Y147.337 E19.79169
G1 X77.14 Y146.524 E19.82174
G1 X76.82 Y145.68 E19.85176
G1 X76.576 Y144.81 E19.88182
G1 X76.41 Y143.922 E19.91186
G1 X76.313 Y142.767 E19.95041
G1 X76.3 Y142.158 E19.97067
G1 X76.301 Y88.036 E21.77078
G1 X76.31 Y87.371 E21.7929
G1 X76.362 Y86.469 E21.82295
G1 X76.494 Y85.576 E21.85297
G1 X76.704 Y84.698 E21.883
G1 X76.991 Y83.841 E21.91306
G1 X77.353 Y83.014 E21.94308
G1 X77.786 Y82.222 E21.97311
G1 X78.288 Y81.471 E22.00315
G1 X78.855 Y80.767 E22.03322
G1 X79.481 Y80.117 E22.06323
G1 X80.162 Y79.524 E22.09327
G1 X80.894 Y78.994 E22.12332
G1 X81.669 Y78.531 E22.15335
G1 X82.482 Y78.138 E22.18338
G1 X83.327 Y77.818 E22.21344
G1 X84.196 Y77.575 E22.24345
G1 X85.084 Y77.409 E22.27349
G1 X86.223 Y77.313 E22.31151
G1 X86.83 Y77.3 E22.33171
G1 X142.793 Y77.3 E24.19304
G1 X143.637 Y77.311 E24.22112
G1 X144.539 Y77.364 E24.25117
G1 X145.432 Y77.496 E24.28119
G1 X146.31 Y77.707 E24.31123
G1 X147.166 Y77.995 E24.34127
G1 X147.993 Y78.357 E24.37129
G1 X148.785 Y78.792 E24.40135
G1 X149.536 Y79.294 E24.43139
G1 X150.239 Y79.861 E24.46143
G1 X150.889 Y80.488 E24.49147
G1 X151.481 Y81.17 E24.5215
G1 X152.011 Y81.901 E24.55154
G1 X152.473 Y82.677 E24.58157
G1 X152.866 Y83.49 E24.61161
G1 X153.184 Y84.335 E24.64164
G1 X153.427 Y85.205 E24.67168
G1 X153.592 Y86.093 E24.70172
G1 X153.687 Y87.223 E24.73944
G1 X153.7 Y87.83 E24.75963
G1 X153.699 Y141.89 E26.55767
G1 X153.69 Y142.617 E26.58186
G1 X153.639 Y143.519 E26.6119
G1 X153.508 Y144.413 E26.64196
G1 X153.299 Y145.291 E26.67198
G1 X153.013 Y146.148 E26.70202
G1 X152.652 Y146.976 E26.73207
G1 X152.22 Y147.768 E26.76207
G1 X151.719 Y148.52 E26.79213
G1 X151.153 Y149.224 E26.82217
G1 X150.528 Y149.875 E26.85219
G1 X149.847 Y150.469 E26.88224
G1 X149.116 Y151 E26.91229
G1 X148.342 Y151.464 E26.94231
G1 X147.529 Y151.858 E26.97236
G1 X146.685 Y152.178 E27.00238
G1 X145.815 Y152.423 E27.03244
G1 X144.928 Y152.589 E27.06245
G1 X143.777 Y152.687 E27.10088
G1 X143.17 Y152.7 E27.12107
G1 X87.075 Y152.699 E28.9868
G1 F1500 E24.9868
;MESH:Holder.stl
G0 F6000 X87.075 Y143.165
G0 X115 Y141.9
;TYPE:WALL-INNER
G1 F1500 E28.9868
G1 F1200 X142.9 Y141.9 E29.91475
G1 X142.9 Y88.1 E31.70415
G1 X87.1 Y88.1 E33.56007
G1 X87.1 Y141.9 E35.34946
G1 X115 Y141.9 E36.27742
G0 F6000 X115 Y142.3
;TYPE:WALL-OUTER
G1 F1200 X143.3 Y142.3 E37.21868
G1 X143.3 Y87.7 E39.03468
G1 X86.7 Y87.7 E40.91721
G1 X86.7 Y142.3 E42.73321
G1 X115 Y142.3 E43.67447
G0 F6000 X115 Y141.54
;TYPE:SKIN
G1 F1200 X87.46 Y141.54 E44.59046
G1 X87.46 Y88.46 E46.3559
G1 X142.54 Y88.46 E48.18787
G1 X142.54 Y141.54 E49.95332
G1 X115 Y141.54 E50.8693
G0 F6000 X115 Y141.8
G0 X88.165 Y141.8
G0 X88.165 Y141.339
G1 F1200 X87.66 Y140.834 E50.89306
G0 F6000 X87.66 Y140.269
G1 F1200 X88.731 Y141.339 E50.94341
G0 F6000 X89.296 Y141.339
G1 F1200 X87.66 Y139.703 E51.02036
G0 F6000 X87.66 Y139.137
G1 F1200 X89.862 Y141.339 E51.12394
G0 F6000 X90.428 Y141.339
G1 F1200 X87.66 Y138.572 E51.25411
G0 F6000 X87.66 Y138.006
G1 F1200 X90.993 Y141.339 E51.41089
G0 F6000 X91.559 Y141.339
G1 F1200 X87.66 Y137.44 E51.59428
G0 F6000 X87.66 Y136.875
G1 F1200 X92.125 Y141.339 E51.80428
G0 F6000 X92.69 Y141.339
G1 F1200 X87.66 Y136.309 E52.04088
G0 F6000 X87.66 Y135.743
G1 F1200 X93.256 Y141.339 E52.3041
G0 F6000 X93.822 Y141.339
G1 F1200 X87.66 Y135.178 E52.59391
G0 F6000 X87.66 Y134.612
G1 F1200 X94.387 Y141.339 E52.91033
G0 F6000 X94.953 Y141.339
G1 F1200 X87.66 Y134.046 E53.25337
G0 F6000 X87.66 Y133.481
G1 F1200 X95.519 Y141.339 E53.62301
G0 F6000 X96.084 Y141.339
G1 F1200 X87.66 Y132.915 E54.01925
G0 F6000 X87.66 Y132.349
G1 F1200 X96.65 Y141.339 E54.44211
G0 F6000 X97.216 Y141.339
G1 F1200 X87.66 Y131.783 E54.8916
G0 F6000 X87.66 Y131.218
G1 F1200 X97.782 Y141.339 E55.36768
G0 F6000 X98.347 Y141.339
G1 F1200 X87.66 Y130.652 E55.87037
G0 F6000 X87.66 Y130.086
G1 F1200 X98.913 Y141.339 E56.39967
G0 F6000 X99.479 Y141.339
G1 F1200 X87.66 Y129.521 E56.95558
G0 F6000 X87.66 Y128.955
G1 F1200 X100.044 Y141.339 E57.53808
G0 F6000 X100.61 Y141.339
G1 F1200 X87.66 Y128.389 E58.14721
G0 F6000 X87.66 Y127.824
G1 F1200 X101.176 Y141.339 E58.78294
G0 F6000 X101.741 Y141.339
G1 F1200 X87.66 Y127.258 E59.44527
G0 F6000 X87.66 Y126.692
G1 F1200 X102.307 Y141.339 E60.13422
G0 F6000 X102.873 Y141.339
G1 F1200 X87.66 Y126.127 E60.84977
G0 F6000 X87.66 Y125.561
G1 F1200 X103.438 Y141.339 E61.59191
G0 F6000 X104.004 Y141.339
G1 F1200 X87.66 Y124.995 E62.36069
G0 F6000 X87.66 Y124.43
G1 F1200 X104.57 Y141.339 E63.15606
G0 F6000 X105.135 Y141.339
G1 F1200 X87.66 Y123.864 E63.97803
G0 F6000 X87.66 Y123.298
G1 F1200 X105.701 Y141.339 E64.82662
G0 F6000 X106.267 Y141.339
G1 F1200 X87.66 Y122.733 E65.70181
G0 F6000 X87.66 Y122.167
G1 F1200 X106.833 Y141.339 E66.60363
G0 F6000 X107.398 Y141.339
G1 F1200 X87.66 Y121.601 E67.53204
G0 F6000 X87.66 Y121.035
G1 F1200 X107.964 Y141.339 E68.48708
G0 F6000 X108.53 Y141.339
G1 F1200 X87.66 Y120.47 E69.46872
G0 F6000 X87.66 Y119.904
G1 F1200 X109.095 Y141.339 E70.47696
G0 F6000 X109.661 Y141.339
G1 F1200 X87.66 Y119.338 E71.51182
G0 F6000 X87.66 Y118.773
G1 F1200 X110.227 Y141.339 E72.57327
G0 F6000 X110.792 Y141.339
G1 F1200 X87.66 Y118.207 E73.66133
G0 F6000 X87.66 Y117.641
G1 F1200 X111.358 Y141.339 E74.77601
G0 F6000 X111.924 Y141.339
G1 F1200 X87.66 Y117.076 E75.9173
G0 F6000 X87.66 Y116.51
G1 F1200 X112.489 Y141.339 E77.08518
G0 F6000 X113.055 Y141.339
G1 F1200 X87.66 Y115.944 E78.27968
G0 F6000 X87.66 Y115.379
G1 F1200 X113.621 Y141.339 E79.50078
G0 F6000 X114.186 Y141.339
G1 F1200 X87.66 Y114.813 E80.74848
G0 F6000 X87.66 Y114.247
G1 F1200 X114.752 Y141.339 E82.02281
G0 F6000 X115.318 Y141.339
G1 F1200 X87.66 Y113.682 E83.32373
G0 F6000 X87.66 Y113.116
G1 F1200 X115.883 Y141.339 E84.65125
G0 F6000 X116.449 Y141.339
G1 F1200 X87.66 Y112.55 E86.0054
G0 F6000 X87.66 Y111.985
G1 F1200 X117.015 Y141.339 E87.38615
G0 F6000 X117.581 Y141.339
G1 F1200 X87.66 Y111.419 E88.79351
G0 F6000 X87.66 Y110.853
G1 F1200 X118.146 Y141.339 E90.22748
G0 F6000 X118.712 Y141.339
G1 F1200 X87.66 Y110.287 E91.68807
G0 F6000 X87.66 Y109.722
G1 F1200 X119.278 Y141.339 E93.17526
G0 F6000 X119.843 Y141.339
G1 F1200 X87.66 Y109.156 E94.68905
G0 F6000 X87.66 Y108.59
G1 F1200 X120.409 Y141.339 E96.22947
G0 F6000 X120.975 Y141.339
G1 F1200 X87.66 Y108.025 E97.79648
G0 F6000 X87.66 Y107.459
G1 F1200 X121.54 Y141.339 E99.39009
G0 F6000 X122.106 Y141.339
G1 F1200 X87.66 Y106.893 E101.01032
G0 F6000 X87.66 Y106.328
G1 F1200 X122.672 Y141.339 E102.65716
G0 F6000 X123.237 Y141.339
G1 F1200 X87.66 Y105.762 E104.33059
G0 F6000 X87.66 Y105.196
G1 F1200 X123.803 Y141.339 E106.03065
G0 F6000 X124.369 Y141.339
G1 F1200 X87.66 Y104.631 E107.7573
G0 F6000 X87.66 Y104.065
G1 F1200 X124.934 Y141.339 E109.51056
G0 F6000 X125.5 Y141.339
G1 F1200 X87.66 Y103.499 E111.29043
G0 F6000 X87.66 Y102.934
G1 F1200 X126.066 Y141.339 E113.09691
G0 F6000 X126.632 Y141.339
G1 F1200 X87.66 Y102.368 E114.93001
G0 F6000 X87.66 Y101.802
G1 F1200 X127.197 Y141.339 E116.78971
G0 F6000 X127.763 Y141.339
G1 F1200 X87.66 Y101.236 E118.67603
G0 F6000 X87.66 Y100.671
G1 F1200 X128.329 Y141.339 E120.58895
G0 F6000 X128.894 Y141.339
G1 F1200 X87.66 Y100.105 E122.52847
G0 F6000 X87.66 Y99.539
G1 F1200 X129.46 Y141.339 E124.49462
G0 F6000 X130.026 Y141.339
G1 F1200 X87.66 Y98.974 E126.48736
G0 F6000 X87.66 Y98.408
G1 F1200 X130.591 Y141.339 E128.5067
G0 F6000 X131.157 Y141.339
G1 F1200 X87.66 Y97.842 E130.55267
G0 F6000 X87.66 Y97.277
G1 F1200 X131.723 Y141.339 E132.62523
G0 F6000 X132.288 Y141.339
G1 F1200 X87.66 Y96.711 E134.7244
G0 F6000 X87.66 Y96.145
G1 F1200 X132.854 Y141.339 E136.85019
G0 F6000 X133.42 Y141.339
G1 F1200 X87.66 Y95.58 E139.00257
G0 F6000 X87.66 Y95.014
G1 F1200 X133.985 Y141.339 E141.18156
G0 F6000 X134.551 Y141.339
G1 F1200 X87.66 Y94.448 E143.38717
G0 F6000 X87.66 Y93.883
G1 F1200 X135.117 Y141.339 E145.61938
G0 F6000 X135.682 Y141.339
G1 F1200 X87.66 Y93.317 E147.87818
G0 F6000 X87.66 Y92.751
G1 F1200 X136.248 Y141.339 E150.16361
G0 F6000 X136.814 Y141.339
G1 F1200 X87.66 Y92.186 E152.47564
G0 F6000 X87.66 Y91.62
G1 F1200 X137.38 Y141.339 E154.8143
G0 F6000 X137.945 Y141.339
G1 F1200 X87.66 Y91.054 E157.17955
G0 F6000 X87.66 Y90.488
G1 F1200 X138.511 Y141.339 E159.57142
G0 F6000 X139.077 Y141.339
G1 F1200 X87.66 Y89.923 E161.9899
G0 F6000 X87.66 Y89.357
G1 F1200 X139.642 Y141.339 E164.43497
G0 F6000 X140.208 Y141.339
G1 F1200 X87.66 Y88.791 E166.90667
G0 F6000 X88.095 Y88.661
G1 F1200 X140.774 Y141.339 E169.3845
G0 F6000 X141.339 Y141.339
G1 F1200 X88.661 Y88.661 E171.86232
G0 F6000 X89.226 Y88.661
G1 F1200 X141.905 Y141.339 E174.34015
G0 F6000 X142.34 Y141.209
G1 F1200 X89.792 Y88.661 E176.81185
G0 F6000 X90.358 Y88.661
G1 F1200 X142.34 Y140.643 E179.25692
G0 F6000 X142.34 Y140.077
G1 F1200 X90.923 Y88.661 E181.6754
G0 F6000 X91.489 Y88.661
G1 F1200 X142.34 Y139.511 E184.06725
G0 F6000 X142.34 Y138.946
G1 F1200 X92.055 Y88.661 E186.4325
G0 F6000 X92.62 Y88.661
G1 F1200 X142.34 Y138.38 E188.77115
G0 F6000 X142.34 Y137.814
G1 F1200 X93.186 Y88.661 E191.08318
G0 F6000 X93.752 Y88.661
G1 F1200 X142.34 Y137.249 E193.36861
G0 F6000 X142.34 Y136.683
G1 F1200 X94.317 Y88.661 E195.62744
G0 F6000 X94.883 Y88.661
G1 F1200 X142.34 Y136.117 E197.85965
G0 F6000 X142.34 Y135.552
G1 F1200 X95.449 Y88.661 E200.06526
G0 F6000 X96.014 Y88.661
G1 F1200 X142.34 Y134.986 E202.24427
G0 F6000 X142.34 Y134.42
G1 F1200 X96.58 Y88.661 E204.39666
G0 F6000 X97.146 Y88.661
G1 F1200 X142.34 Y133.855 E206.52245
G0 F6000 X142.34 Y133.289
G1 F1200 X97.712 Y88.661 E208.62161
G0 F6000 X98.277 Y88.661
G1 F1200 X142.34 Y132.723 E210.69417
G0 F6000 X142.34 Y132.158
G1 F1200 X98.843 Y88.661 E212.74014
G0 F6000 X99.409 Y88.661
G1 F1200 X142.34 Y131.592 E214.75948
